X:4
T:Lou Bouy
M:6/8
L:1/8
N:Trs large et puissant
N:La Bourre 4th edition 1929, page 21
Z:Steve Mansfield www.lesession.co.uk April 2012
K:Gm
G G d | (dc) B c2d | (d6 |
d3) G G d | (dc) B c2d | !fermata! (d6 | d3) G A B |
c2d B3 | A3 G A B | c2d (B2A) | !fermata! A6 |]

